X:1
T:Miss Norton’s Reel [1]
M:C|
L:1/8
R:Reel
C:John Pringle
B:John Pringle – A Second Collection of Strathspeys, Reels & Jiggs &c. (c. 1805)
Z:AK/Fiddler’s Companion
K:Bb
F|B2 dB AFFA|B2 dB ecdB|B2 dB (A/B/c) AF|GBAc B2:||
d|BFDF BcdB|edcB Accd|BFDF GABg|fdec B2 Bd|
BFDF BcdB|ecdB cGGcG|BFDF GABg|fdec B2B||

